public/static/img/flag/jp.svg

<svg width="30" height="30" viewBox="0 0 30 30" fill="none" xmlns="http://www.w3.org/2000/svg">
<circle cx="15" cy="15" r="13" fill="#E22D2D"/>
<mask id="mask0_136_1825" style="mask-type:alpha" maskUnits="userSpaceOnUse" x="2" y="2" width="26" height="26">
<circle cx="15" cy="15" r="13" fill="#CE1126"/>
</mask>
<g mask="url(#mask0_136_1825)">
<path fill-rule="evenodd" clip-rule="evenodd" d="M19.7088 6.02505L19.3502 5L18.9903 6.02531L17.8549 6.03332L18.7111 6.70997L18.3883 7.82851L19.3502 7.17071L20.3121 7.82851L19.967 6.72469L20.8442 6.03306L19.7088 6.02505ZM24.0116 10.2208L23.653 9.19576L23.2931 10.2211L22.1577 10.2291L23.0139 10.9057L22.6912 12.0243L23.653 11.3665L24.6149 12.0243L24.2698 10.9205L25.147 10.2288L24.0116 10.2208ZM23.8632 16.3104L23.5046 15.2854L23.1447 16.3107L22.0093 16.3187L22.8655 16.9954L22.5427 18.1139L23.5046 17.4561L24.4665 18.1139L24.1214 17.0101L24.9986 16.3184L23.8632 16.3104ZM19.7088 20.4693L19.3502 19.4442L18.9903 20.4695L17.8549 20.4775L18.7111 21.1542L18.3883 22.2727L19.3502 21.6149L20.3121 22.2727L19.967 21.1689L20.8442 20.4773L19.7088 20.4693ZM10.745 10.1131L9.65105 6.81818L8.55732 10.1125L5.09357 10.1389L7.70118 12.314L6.71695 15.9091L9.65105 13.7951L12.5851 15.9091L11.5324 12.3614L14.2088 10.1394L10.745 10.1131Z" fill="#FCD116"/>
</g>
<g clip-path="url(#clip0_136_1825)">
<path d="M14.995 0C23.2785 0 29.9925 6.714 29.9925 14.995C29.9925 23.2775 23.28 29.9915 14.995 29.9915C6.7135 29.9915 0 23.2775 0 14.995C0 6.714 6.714 0 14.995 0Z" fill="#F3F3F3"/>
<path d="M14.995 8.47512C15.8608 8.45996 16.721 8.61739 17.5253 8.93825C18.3297 9.2591 19.062 9.73694 19.6797 10.3439C20.2973 10.9508 20.7879 11.6747 21.1228 12.4733C21.4577 13.2719 21.6302 14.1292 21.6302 14.9951C21.6302 15.8611 21.4577 16.7184 21.1228 17.517C20.7879 18.3155 20.2973 19.0394 19.6797 19.6464C19.062 20.2533 18.3297 20.7311 17.5253 21.052C16.721 21.3728 15.8608 21.5303 14.995 21.5151C13.2921 21.4757 11.6723 20.7715 10.4819 19.5532C9.29152 18.3349 8.62506 16.6992 8.62506 14.9959C8.62506 13.2926 9.29152 11.6568 10.4819 10.4385C11.6723 9.22025 13.2921 8.51608 14.995 8.47662" fill="#D80027"/>
</g>
<defs>
<clipPath id="clip0_136_1825">
<rect width="30" height="30" fill="white"/>
</clipPath>
</defs>
</svg>

<svg width="30" height="30" fill="none" xmlns="http://www.w3.org/2000/svg"><circle cx="15" cy="15" r="13" fill="#E22D2D"/><mask id="a" style="mask-type:alpha" maskUnits="userSpaceOnUse" x="2" y="2" width="26" height="26"><circle cx="15" cy="15" r="13" fill="#CE1126"/></mask><g mask="url(#a)"><path fill-rule="evenodd" clip-rule="evenodd" d="M19.709 6.025 19.35 5l-.36 1.025-1.135.008.856.677-.323 1.119.962-.658.962.658-.345-1.104.877-.692-1.135-.008Zm4.303 4.196-.359-1.025-.36 1.025-1.135.008.856.677-.323 1.118.962-.657.962.657-.345-1.103.877-.692-1.135-.008Zm-.149 6.09-.358-1.026-.36 1.026-1.136.008.857.676-.323 1.119.962-.658.962.658-.346-1.104.878-.692-1.136-.008Zm-4.154 4.158-.359-1.025-.36 1.026-1.135.008.856.676-.323 1.119.962-.658.962.658-.345-1.104.877-.692-1.135-.008Zm-8.964-10.356L9.651 6.818l-1.094 3.295-3.463.026L7.7 12.314l-.984 3.595 2.934-2.114 2.934 2.114-1.053-3.548 2.677-2.222-3.464-.026Z" fill="#FCD116"/></g><g clip-path="url(#b)"><path d="M14.995 0c8.284 0 14.998 6.714 14.998 14.995 0 8.283-6.713 14.996-14.998 14.996C6.714 29.991 0 23.278 0 14.995 0 6.714 6.714 0 14.995 0Z" fill="#F3F3F3"/><path d="M14.995 8.475a6.52 6.52 0 1 1 0 13.04 6.52 6.52 0 0 1 0-13.038" fill="#D80027"/></g><defs><clipPath id="b"><path fill="#fff" d="M0 0h30v30H0z"/></clipPath></defs></svg>
